app/components/elements/SlideShow/Images/fuelingNextGenImage.svg

<svg width="200" height="200" viewBox="0 0 200 200" fill="none" xmlns="http://www.w3.org/2000/svg">
<g clip-path="url(#clip0_4990_1365)">
<path d="M160.016 94.9864C159.821 95.286 159.554 95.5351 159.24 95.7048C159.179 95.7409 159.11 95.7734 159.045 95.8023L121.493 114.181C120.995 114.423 120.464 114.564 119.93 114.607C119.814 114.618 119.699 114.622 119.587 114.622C119.475 114.622 119.359 114.618 119.244 114.607C118.71 114.564 118.179 114.423 117.684 114.181L117.338 114.011L79.9339 95.7048C79.6198 95.5351 79.3527 95.286 79.1577 94.9864C79.3527 94.6867 79.6198 94.4376 79.9339 94.268L117.684 75.7916C118.179 75.5497 118.71 75.409 119.244 75.3656C119.471 75.3476 119.702 75.344 119.93 75.3656C120.464 75.409 120.995 75.5497 121.493 75.7916L159.045 94.1705C159.11 94.1994 159.179 94.2319 159.24 94.268C159.554 94.4376 159.821 94.6867 160.016 94.9864Z" fill="#B0BDFF"/>
<path d="M160.367 96.1649V132.024C160.367 133.677 159.425 135.19 157.937 135.915L121.707 153.648L121.281 153.857C121.281 153.857 121.27 153.861 121.262 153.865C120.75 154.078 120.187 154.197 119.595 154.197H119.587V114.62C119.699 114.62 119.815 114.616 119.93 114.605C120.465 114.562 120.995 114.421 121.494 114.179L159.045 95.8003C159.11 95.7714 159.179 95.7389 159.24 95.7028C159.555 95.5331 159.822 95.284 160.017 94.9844C160.237 95.3237 160.367 95.7317 160.367 96.1649Z" fill="#92A4F7"/>
<path d="M119.587 114.62V154.197H119.58C118.988 154.197 118.425 154.078 117.912 153.865C117.905 153.861 117.902 153.861 117.894 153.857L117.468 153.648L81.2377 135.915C79.7503 135.19 78.8081 133.677 78.8081 132.024V96.1649C78.8081 95.7317 78.9381 95.3237 79.1583 94.9844C79.3532 95.284 79.6204 95.5331 79.9344 95.7028L117.338 114.009L117.685 114.179C118.18 114.421 118.71 114.562 119.245 114.605C119.36 114.616 119.472 114.62 119.587 114.62Z" fill="#7C91F6"/>
<path d="M132.052 88.7239L130.93 88.1788C129.684 87.5723 128.233 87.5687 126.984 88.1716L126.865 88.2294L125.291 88.9983L107.118 97.8935H107.114C105.717 98.5794 105.72 100.572 107.121 101.254L108.244 101.8C109.489 102.406 110.941 102.41 112.19 101.807L112.309 101.749L113.883 100.98L132.056 92.0849H132.06C133.457 91.399 133.453 89.4062 132.052 88.7239Z" fill="#7C91F6"/>
<path d="M85.3385 59.2334V61.5872L80.8945 60.1685C80.8945 60.1685 80.8765 60.1648 80.8692 60.1612C78.0967 59.1973 76.6924 58.0132 76.6924 56.6414C76.6924 56.0205 77.1942 55.5187 77.8115 55.5187C78.4288 55.5187 78.9054 55.9916 78.9342 56.5873C79.0425 56.7786 79.7068 57.3815 81.5913 58.0385L85.3385 59.2334Z" fill="#B1BEFF"/>
<path d="M85.3385 59.2334V61.5872L80.8945 60.1685C80.8945 60.1685 80.8765 60.1648 80.8692 60.1612C78.0967 59.1973 76.6924 58.0132 76.6924 56.6414C76.6924 56.0205 77.1942 55.5187 77.8115 55.5187C78.4288 55.5187 78.9054 55.9916 78.9342 56.5873C79.0425 56.7786 79.7068 57.3815 81.5913 58.0385L85.3385 59.2334Z" fill="#271B46"/>
<path d="M86.4721 70.3025C86.4035 70.2989 86.2843 70.27 86.1255 70.2339L86.4721 70.3025Z" fill="#7990FF"/>
<path d="M102.652 49.9937C102.104 49.9937 101.562 50.019 101.035 50.0767C100.999 50.0479 100.963 50.0226 100.927 49.9937H102.652Z" fill="#7990FF"/>
<path d="M118.347 58.2411V83.8574C118.347 85.312 117.169 86.4901 115.714 86.4901H89.7592C88.3079 86.4901 87.1265 85.312 87.1265 83.8574V73.9156C87.3799 73.965 87.5971 74.0078 87.7682 74.044C87.7945 74.0506 87.8176 74.0539 87.8439 74.0604C87.9887 74.0933 88.0973 74.1197 88.1598 74.123C88.1697 74.1263 88.1796 74.1262 88.1861 74.1262C88.2059 74.1361 88.2157 74.1361 88.2157 74.1361L91.3289 75.1168C93.2442 75.7223 95.2879 74.6627 95.8901 72.7474C96.002 72.3821 96.0612 72.0168 96.0612 71.6515C96.0612 70.786 95.7486 69.9534 95.199 69.3018C95.1365 69.2294 95.0707 69.157 95.0049 69.0912C94.6034 68.6864 94.0999 68.3738 93.5207 68.1895L92.8724 67.9789L88.4922 66.6H88.4757C88.4297 66.5901 88.3836 66.5769 88.3375 66.5638L87.1265 66.1787V58.2411C87.1265 56.7865 88.3079 55.6084 89.7592 55.6084H101.337C101.369 55.6347 101.402 55.6578 101.435 55.6841C101.916 55.6314 102.409 55.6084 102.91 55.6084H115.714C117.169 55.6084 118.347 56.7865 118.347 58.2411Z" fill="white"/>
<path d="M95.1989 69.3056C95.7485 69.9572 96.0611 70.7898 96.0611 71.6553C96.0611 72.0206 96.0019 72.3859 95.89 72.7512C95.2878 74.6665 93.2441 75.7262 91.3288 75.1206L88.2156 74.14C88.2156 74.14 88.2058 74.14 88.186 74.1301C88.1794 74.1301 88.1696 74.1301 88.1597 74.1268L87.8438 74.0643C87.8174 74.0577 87.7944 74.0544 87.7681 74.0478C87.597 74.0116 87.3798 73.9688 87.1264 73.9195C83.8815 73.2712 74.4071 71.4348 73.0644 71.7475C70.435 72.3431 65.4131 70.3094 63.2674 67.6832C61.1119 65.0538 59.9567 63.2208 58.647 63.02L63.7577 48.5631L65.7125 48.9218C66.917 49.1423 68.1412 49.2114 69.3621 49.1127C74.2656 48.7112 85.1814 47.2961 87.8504 47.3554C90.6246 47.4146 99.0657 53.8483 101.336 55.6122H89.7591C88.3078 55.6122 87.1264 56.7904 87.1264 58.2449V64.0369L83.7104 62.9476C81.9926 62.3487 81.387 61.7991 81.2883 61.6247C81.262 61.0817 80.8144 60.6506 80.2648 60.6506C79.7153 60.6506 79.2447 61.108 79.2447 61.6741C79.2447 62.9246 80.5248 64.004 83.0522 64.8827C83.0588 64.8827 83.0687 64.8893 83.0753 64.8893L87.1264 66.1826L88.3374 66.5676C88.3835 66.5808 88.4295 66.5939 88.4756 66.6005H88.4921L92.8723 67.9827L93.5206 68.1933C94.0998 68.3776 94.6033 68.6902 95.0047 69.095C95.0706 69.1641 95.1364 69.2332 95.1989 69.3056Z" fill="#7F4E32"/>
<path d="M112.482 61.3432H109.566C108.839 61.3432 108.25 61.9326 108.25 62.6596V79.4102C108.25 80.1372 108.839 80.7266 109.566 80.7266H112.482C113.209 80.7266 113.798 80.1372 113.798 79.4102V62.6596C113.798 61.9326 113.209 61.3432 112.482 61.3432Z" fill="#627CFF"/>
<path d="M103.928 66.1651H101.013C100.286 66.1651 99.6963 66.7545 99.6963 67.4815V79.4109C99.6963 80.1379 100.286 80.7273 101.013 80.7273H103.928C104.655 80.7273 105.245 80.1379 105.245 79.4109V67.4815C105.245 66.7545 104.655 66.1651 103.928 66.1651Z" fill="#627CFF"/>
<path d="M57.9669 43.7351L62.1036 45.2029C63.5582 45.7195 64.3184 47.3156 63.805 48.7702L58.9378 62.5031C58.4211 63.9577 56.825 64.7179 55.3704 64.2045L51.2338 62.7367C49.7792 62.2201 49.019 60.624 49.5324 59.1694L54.3996 45.4365C54.9163 43.982 56.5124 43.2218 57.9669 43.7351Z" fill="#7C91F6"/>
<path d="M58.506 93.0361H22.5509C21.7442 93.0361 21.0908 93.6895 21.0908 94.4962V118.478C21.0908 119.285 21.7442 119.939 22.5509 119.939H58.506C59.3127 119.939 59.9661 119.285 59.9661 118.478V94.4962C59.9661 93.6895 59.3127 93.0361 58.506 93.0361Z" fill="white"/>
<path d="M42.4838 105.804C41.2664 105.804 40.2754 104.813 40.2754 103.593V102.933C40.2754 102.714 40.1038 102.54 39.8848 102.54H39.1639C37.9465 102.54 36.9573 101.549 36.9573 100.33V99.5616C36.9573 99.3426 36.7857 99.1692 36.5667 99.1692H35.8531C35.6341 99.1692 35.4625 99.3408 35.4625 99.5616V103.592C35.4625 104.811 34.4714 105.802 33.2559 105.802H32.5423C31.3249 105.802 30.3357 104.811 30.3357 103.592V102.931C30.3357 102.712 30.1641 102.538 29.9451 102.538H27.9338C27.4319 102.538 27.0249 102.131 27.0249 101.629C27.0249 101.128 27.4319 100.721 27.9338 100.721H29.9451C31.1625 100.721 32.1517 101.712 32.1517 102.931V103.592C32.1517 103.811 32.3233 103.982 32.5423 103.982H33.2559C33.4749 103.982 33.6465 103.811 33.6465 103.592V99.5616C33.6465 98.3424 34.6375 97.3514 35.8531 97.3514H36.5667C37.7841 97.3514 38.7733 98.3424 38.7733 99.5616V100.33C38.7733 100.549 38.9448 100.721 39.1639 100.721H39.8848C41.1058 100.721 42.0987 101.712 42.0987 102.931V103.592C42.0987 103.811 42.2702 103.982 42.4892 103.982H43.2029C43.4219 103.982 43.5935 103.811 43.5935 103.592V99.5616C43.5935 98.3424 44.5845 97.3514 45.8019 97.3514H46.5155C47.7329 97.3514 48.7239 98.3424 48.7239 99.5616V100.33C48.7239 100.549 48.8955 100.721 49.1145 100.721H53.1042C53.6061 100.721 54.0131 101.129 54.0131 101.629C54.0131 102.13 53.6061 102.538 53.1042 102.538H49.1145C47.8935 102.538 46.9006 101.547 46.9006 100.328V99.5598C46.9006 99.3408 46.729 99.1674 46.51 99.1674H45.7964C45.5774 99.1674 45.4058 99.3389 45.4058 99.5598V103.59C45.4058 104.805 44.4166 105.796 43.1992 105.8H42.4856L42.4838 105.804Z" fill="#271B46"/>
<path d="M43.1965 105.392H42.4829C41.4937 105.392 40.687 104.584 40.687 103.593V102.932C40.687 102.487 40.3311 102.131 39.8858 102.131H39.1648C38.1756 102.131 37.3689 101.322 37.3689 100.331V99.563C37.3689 99.1177 37.013 98.7618 36.5677 98.7618H35.854C35.4105 98.7618 35.0528 99.1195 35.0528 99.563V103.593C35.0528 104.584 34.2461 105.392 33.2569 105.392H32.5432C31.554 105.392 30.7473 104.584 30.7473 103.593V102.932C30.7473 102.487 30.3914 102.131 29.9461 102.131H27.9348C27.6592 102.131 27.4365 101.908 27.4365 101.633C27.4365 101.357 27.6592 101.134 27.9348 101.134H29.9461C30.9353 101.134 31.742 101.943 31.742 102.934V103.595C31.742 104.04 32.0979 104.396 32.5432 104.396H33.2569C33.7004 104.396 34.0581 104.038 34.0581 103.595V99.5648C34.0581 98.5738 34.8648 97.7653 35.854 97.7653H36.5677C37.5569 97.7653 38.3636 98.5738 38.3636 99.5648V100.333C38.3636 100.779 38.7195 101.134 39.1648 101.134H39.8858C40.875 101.134 41.689 101.943 41.689 102.934V103.595C41.689 104.04 42.0449 104.396 42.4902 104.396H43.2038C43.6474 104.396 44.0051 104.038 44.0051 103.595V99.5648C44.0051 98.5738 44.8118 97.7653 45.801 97.7653H46.5146C47.5039 97.7653 48.3106 98.5738 48.3106 99.5648V100.333C48.3106 100.779 48.6665 101.134 49.1118 101.134H53.1015C53.3771 101.134 53.5998 101.357 53.5998 101.633C53.5998 101.908 53.3771 102.131 53.1015 102.131H49.1118C48.1226 102.131 47.3086 101.322 47.3086 100.331V99.563C47.3086 99.1177 46.9527 98.7618 46.5073 98.7618H45.7937C45.3502 98.7618 44.9925 99.1195 44.9925 99.563V103.593C44.9925 104.584 44.1858 105.392 43.1892 105.392H43.1965Z" fill="#271B46"/>
<path d="M53.1224 115.623C50.5179 115.623 49.2093 113.539 48.158 111.865C47.1725 110.301 46.3256 108.958 44.7304 108.958C43.1353 108.958 42.2902 110.301 41.3083 111.856C40.2516 113.539 38.9429 115.623 36.3385 115.623C33.734 115.623 32.4254 113.539 31.3741 111.865C30.3885 110.301 29.5417 108.958 27.9465 108.958C27.4464 108.958 27.0376 108.549 27.0376 108.049C27.0376 107.549 27.4446 107.14 27.9465 107.14C30.551 107.14 31.8596 109.222 32.9109 110.898C33.8964 112.46 34.7433 113.805 36.3385 113.805C37.9336 113.805 38.786 112.458 39.7661 110.898C40.8173 109.224 42.126 107.14 44.7304 107.14C47.3349 107.14 48.6435 109.222 49.6948 110.898C50.6804 112.46 51.5272 113.805 53.1224 113.805C53.6243 113.805 54.0313 114.214 54.0313 114.714C54.0313 115.214 53.6243 115.623 53.1224 115.623Z" fill="#627CFF"/>
<path d="M53.1223 115.214C50.746 115.214 49.556 113.321 48.5065 111.649C47.5045 110.06 46.5554 108.55 44.7321 108.55C42.9088 108.55 41.9598 110.06 40.9578 111.649C39.9083 113.321 38.711 115.214 36.342 115.214C33.973 115.214 32.7757 113.321 31.7262 111.649C30.7243 110.06 29.7752 108.55 27.9519 108.55C27.6763 108.55 27.4536 108.328 27.4536 108.052C27.4536 107.776 27.6763 107.554 27.9519 107.554C30.3282 107.554 31.5182 109.448 32.5676 111.118C33.5696 112.708 34.5187 114.217 36.3438 114.217C38.169 114.217 39.1162 112.715 40.1182 111.118C41.1677 109.446 42.3649 107.554 44.734 107.554C47.103 107.554 48.3003 109.448 49.3497 111.118C50.3517 112.708 51.3008 114.217 53.1259 114.217C53.4015 114.217 53.6242 114.44 53.6242 114.716C53.6242 114.991 53.4015 115.214 53.1259 115.214H53.1223Z" fill="#627CFF"/>
<path d="M97.6099 129.417H55.6221C54.68 129.417 53.917 130.18 53.917 131.122V159.128C53.917 160.07 54.68 160.833 55.6221 160.833H97.6099C98.552 160.833 99.315 160.07 99.315 159.128V131.122C99.315 130.18 98.552 129.417 97.6099 129.417Z" fill="white"/>
<path d="M62.6079 154.97L60.3657 154.97C59.8949 154.97 59.5132 154.589 59.5132 154.118L59.5132 141.442C59.5132 140.972 59.8949 140.59 60.3657 140.59L62.6079 140.59C63.0788 140.59 63.4605 140.972 63.4605 141.442L63.4605 154.118C63.4605 154.589 63.0788 154.97 62.6079 154.97Z" fill="#627CFF"/>
<path d="M74.7783 154.97L72.5361 154.97C72.0653 154.97 71.6836 154.589 71.6836 154.118L71.6836 135.592C71.6836 135.121 72.0653 134.739 72.5361 134.739L74.7783 134.739C75.2492 134.739 75.6309 135.121 75.6309 135.592L75.6309 154.118C75.6309 154.589 75.2492 154.97 74.7783 154.97Z" fill="#627CFF"/>
<path d="M80.6929 154.97L78.4507 154.97C77.9798 154.97 77.5981 154.589 77.5981 154.118L77.5981 138.505C77.5981 138.035 77.9798 137.653 78.4507 137.653L80.6929 137.653C81.1637 137.653 81.5454 138.035 81.5454 138.505L81.5454 154.118C81.5454 154.589 81.1637 154.97 80.6929 154.97Z" fill="#FCCE9F"/>
<path d="M92.8628 154.97L90.6206 154.97C90.1498 154.97 89.7681 154.589 89.7681 154.118L89.7681 138.505C89.7681 138.035 90.1498 137.653 90.6206 137.653L92.8628 137.653C93.3336 137.653 93.7153 138.035 93.7153 138.505L93.7153 154.118C93.7153 154.589 93.3337 154.97 92.8628 154.97Z" fill="#FCCE9F"/>
<path d="M86.6392 154.97L84.397 154.97C83.9261 154.97 83.5444 154.589 83.5444 154.118L83.5444 143.269C83.5444 142.798 83.9261 142.416 84.397 142.416L86.6392 142.416C87.11 142.416 87.4917 142.798 87.4917 143.269L87.4917 154.118C87.4917 154.589 87.11 154.97 86.6392 154.97Z" fill="#627CFF"/>
<path d="M68.7354 154.97L66.4932 154.97C66.0223 154.97 65.6406 154.589 65.6406 154.118L65.6406 146.391C65.6406 145.921 66.0223 145.539 66.4932 145.539L68.7354 145.539C69.2062 145.539 69.5879 145.921 69.5879 146.391L69.5879 154.118C69.5879 154.589 69.2062 154.97 68.7354 154.97Z" fill="#271B46"/>
<path d="M159.003 43.5757H129.224C128.556 43.5757 128.015 44.1169 128.015 44.7851V64.648C128.015 65.3161 128.556 65.8573 129.224 65.8573H159.003C159.671 65.8573 160.213 65.3161 160.213 64.648V44.7851C160.213 44.1169 159.671 43.5757 159.003 43.5757Z" fill="white"/>
<path d="M148.706 47.782V51.9586C147.188 51.9586 145.962 53.1921 145.962 54.7128C145.962 55.2162 146.1 55.6848 146.332 56.09L142.715 58.1805C140.804 54.867 141.939 50.6284 145.248 48.7132C146.349 48.0737 147.439 47.782 148.712 47.782H148.706Z" fill="#627CFF"/>
<path d="M154.696 58.1756C152.786 61.4891 148.551 62.6259 145.244 60.7122C144.143 60.0788 143.344 59.2776 142.71 58.1756L146.328 56.085C146.801 56.9074 147.691 57.4621 148.707 57.4621C149.723 57.4621 150.612 56.9074 151.092 56.085L154.704 58.1756H154.698H154.696Z" fill="#FCCE9F"/>
<path d="M155.626 54.7124C155.626 55.9867 155.336 57.0721 154.696 58.1801L151.085 56.0895C151.319 55.6844 151.451 55.2158 151.451 54.7185C151.451 53.1993 150.225 51.9703 148.707 51.9643V47.7876C152.53 47.7876 155.627 50.8895 155.627 54.717V54.7109L155.626 54.7124Z" fill="#271B46"/>
<path d="M134.358 51.2923C135.325 51.2923 136.11 50.5078 136.11 49.5388C136.11 48.5699 135.325 47.7853 134.358 47.7853C133.39 47.7853 132.606 48.5699 132.606 49.5388C132.606 50.5078 133.39 51.2923 134.358 51.2923Z" fill="#627CFF"/>
<path d="M134.358 61.645C135.325 61.645 136.11 60.8605 136.11 59.8915C136.11 58.9225 135.325 58.138 134.358 58.138C133.39 58.138 132.606 58.9241 132.606 59.8915C132.606 60.859 133.39 61.645 134.358 61.645Z" fill="#FCCE9F"/>
<path d="M134.358 56.4687C135.325 56.4687 136.11 55.6827 136.11 54.7152C136.11 53.7478 135.325 52.9617 134.358 52.9617C133.39 52.9617 132.606 53.7478 132.606 54.7152C132.606 55.6827 133.39 56.4687 134.358 56.4687Z" fill="#271B46"/>
</g>
<defs>
<clipPath id="clip0_4990_1365">
<rect width="200" height="200" fill="white"/>
</clipPath>
</defs>
</svg>

<svg xmlns="http://www.w3.org/2000/svg" width="200" height="200" fill="none"><g clip-path="url(#a)"><path fill="#B0BDFF" d="M160.016 94.986c-.195.3-.462.55-.776.719-.061.036-.13.068-.195.097l-37.552 18.379a4.38 4.38 0 0 1-2.249.426 4.348 4.348 0 0 1-1.56-.426l-.346-.17-37.404-18.306a2.149 2.149 0 0 1-.776-.719c.195-.3.462-.548.776-.718l37.75-18.476a4.358 4.358 0 0 1 2.246-.426 4.39 4.39 0 0 1 1.563.426l37.552 18.379c.065.028.134.06.195.097.314.17.581.419.776.718Z"/><path fill="#92A4F7" d="M160.367 96.165v35.859a4.329 4.329 0 0 1-2.43 3.891l-36.23 17.733-.426.209-.019.008a4.33 4.33 0 0 1-1.667.332h-.008V114.62a4.385 4.385 0 0 0 1.907-.441L159.045 95.8c.065-.029.134-.061.195-.097.315-.17.582-.419.777-.719.22.34.35.748.35 1.18Z"/><path fill="#7C91F6" d="M119.587 114.62v39.577h-.007a4.339 4.339 0 0 1-1.668-.332l-.018-.008-.426-.209-36.23-17.733a4.33 4.33 0 0 1-2.43-3.891v-35.86c0-.432.13-.84.35-1.18.195.3.462.55.776.719l37.404 18.306.347.17a4.342 4.342 0 0 0 1.902.441ZM132.052 88.724l-1.122-.545a4.518 4.518 0 0 0-3.946-.007l-.119.057-1.574.77-18.173 8.895h-.004c-1.397.685-1.394 2.678.007 3.36l1.123.546a4.52 4.52 0 0 0 3.946.007l.119-.058 1.574-.769 18.173-8.895h.004c1.397-.686 1.393-2.679-.008-3.361Z"/><path fill="#B1BEFF" d="M85.338 59.233v2.354l-4.444-1.419s-.018-.003-.025-.007c-2.772-.964-4.177-2.148-4.177-3.52 0-.62.502-1.122 1.12-1.122.617 0 1.093.473 1.122 1.068.109.192.773.794 2.657 1.451l3.748 1.195Z"/><path fill="#271B46" d="M85.338 59.233v2.354l-4.444-1.419s-.018-.003-.025-.007c-2.772-.964-4.177-2.148-4.177-3.52 0-.62.502-1.122 1.12-1.122.617 0 1.093.473 1.122 1.068.109.192.773.794 2.657 1.451l3.748 1.195Z"/><path fill="#7990FF" d="M86.472 70.302c-.069-.003-.188-.032-.346-.068l.346.069ZM102.652 49.994c-.548 0-1.09.025-1.617.083-.036-.03-.072-.054-.108-.083h1.725Z"/><path fill="#fff" d="M118.347 58.241v25.616a2.632 2.632 0 0 1-2.633 2.633H89.759a2.634 2.634 0 0 1-2.633-2.633v-9.941c.254.049.471.092.642.128.026.007.05.01.076.016.145.033.253.06.316.063.01.003.02.003.026.003.02.01.03.01.03.01l3.113.98a3.631 3.631 0 0 0 4.561-2.369 3.73 3.73 0 0 0 .171-1.096 3.652 3.652 0 0 0-1.056-2.56 3.633 3.633 0 0 0-1.484-.901l-.649-.211-4.38-1.379h-.016c-.046-.01-.092-.023-.138-.036l-1.212-.385V58.24a2.634 2.634 0 0 1 2.633-2.633h11.578c.032.027.065.05.098.076a13.56 13.56 0 0 1 1.475-.076h12.804a2.632 2.632 0 0 1 2.633 2.633Z"/><path fill="#7F4E32" d="M95.199 69.306c.55.651.862 1.484.862 2.35 0 .365-.06.73-.171 1.095a3.631 3.631 0 0 1-4.561 2.37l-3.113-.981s-.01 0-.03-.01c-.007 0-.016 0-.026-.003l-.316-.063-.076-.016a42.997 42.997 0 0 0-.642-.129c-3.245-.648-12.719-2.484-14.062-2.171-2.629.595-7.65-1.439-9.797-4.065-2.155-2.63-3.31-4.462-4.62-4.663l5.11-14.457 1.956.359c1.204.22 2.428.29 3.65.19 4.903-.4 15.818-1.816 18.487-1.757 2.775.06 11.216 6.493 13.486 8.257H89.759a2.634 2.634 0 0 0-2.633 2.633v5.792l-3.416-1.09c-1.717-.598-2.323-1.148-2.422-1.322a1.024 1.024 0 0 0-1.023-.974c-.55 0-1.02.457-1.02 1.023 0 1.25 1.28 2.33 3.807 3.209.007 0 .017.006.023.006l4.051 1.294 1.211.385c.046.013.093.026.139.032h.016l4.38 1.383.649.21a3.632 3.632 0 0 1 1.678 1.113Z"/><path fill="#627CFF" d="M112.482 61.343h-2.916c-.727 0-1.316.59-1.316 1.317v16.75c0 .727.589 1.317 1.316 1.317h2.916c.727 0 1.316-.59 1.316-1.317V62.66c0-.727-.589-1.317-1.316-1.317ZM103.928 66.165h-2.915c-.727 0-1.317.59-1.317 1.316v11.93c0 .727.59 1.316 1.317 1.316h2.915c.727 0 1.317-.59 1.317-1.316V67.48c0-.727-.59-1.316-1.317-1.316Z"/><path fill="#7C91F6" d="m57.967 43.735 4.137 1.468a2.797 2.797 0 0 1 1.701 3.567l-4.867 13.733a2.797 2.797 0 0 1-3.568 1.701l-4.136-1.467a2.797 2.797 0 0 1-1.702-3.568L54.4 45.437a2.797 2.797 0 0 1 3.567-1.702Z"/><path fill="#fff" d="M58.506 93.036H22.551a1.46 1.46 0 0 0-1.46 1.46v23.982a1.46 1.46 0 0 0 1.46 1.461h35.955a1.46 1.46 0 0 0 1.46-1.461V94.496a1.46 1.46 0 0 0-1.46-1.46Z"/><path fill="#271B46" d="M42.484 105.804a2.212 2.212 0 0 1-2.209-2.211v-.66a.389.389 0 0 0-.39-.393h-.721a2.21 2.21 0 0 1-2.207-2.21v-.768a.388.388 0 0 0-.39-.393h-.714a.387.387 0 0 0-.39.393v4.03c0 1.219-.992 2.21-2.207 2.21h-.714a2.21 2.21 0 0 1-2.206-2.21v-.661a.389.389 0 0 0-.39-.393h-2.012a.909.909 0 0 1 0-1.817h2.011a2.21 2.21 0 0 1 2.207 2.21v.661c0 .219.171.39.39.39h.714c.219 0 .39-.171.39-.39v-4.03c0-1.22.992-2.21 2.207-2.21h.714a2.21 2.21 0 0 1 2.206 2.21v.768c0 .219.172.391.39.391h.722c1.22 0 2.214.991 2.214 2.21v.661c0 .219.171.39.39.39h.714c.219 0 .39-.171.39-.39v-4.03c0-1.22.991-2.21 2.209-2.21h.714c1.217 0 2.208.99 2.208 2.21v.768c0 .219.172.391.39.391h3.99a.91.91 0 0 1 0 1.817h-3.99a2.214 2.214 0 0 1-2.213-2.21v-.768a.388.388 0 0 0-.391-.393h-.714a.387.387 0 0 0-.39.393v4.03c0 1.215-.99 2.206-2.207 2.21h-.713l-.002.004Z"/><path fill="#271B46" d="M43.197 105.392h-.714a1.8 1.8 0 0 1-1.796-1.799v-.661a.798.798 0 0 0-.801-.801h-.721c-.99 0-1.796-.809-1.796-1.8v-.768a.798.798 0 0 0-.801-.801h-.714a.8.8 0 0 0-.801.801v4.03a1.8 1.8 0 0 1-1.796 1.799h-.714a1.8 1.8 0 0 1-1.796-1.799v-.661a.798.798 0 0 0-.8-.801h-2.012a.498.498 0 1 1 0-.997h2.011c.99 0 1.796.809 1.796 1.8v.661c0 .445.356.801.801.801h.714a.8.8 0 0 0 .801-.801v-4.03c0-.991.807-1.8 1.796-1.8h.714c.989 0 1.796.809 1.796 1.8v.768c0 .446.355.801.8.801h.722c.989 0 1.803.809 1.803 1.8v.661c0 .445.356.801.801.801h.714a.8.8 0 0 0 .801-.801v-4.03c0-.991.807-1.8 1.796-1.8h.714c.989 0 1.796.809 1.796 1.8v.768c0 .446.355.801.8.801h3.99a.498.498 0 1 1 0 .997h-3.99c-.988 0-1.802-.809-1.802-1.8v-.768a.798.798 0 0 0-.802-.801h-.713a.8.8 0 0 0-.801.801v4.03c0 .991-.807 1.799-1.804 1.799h.008Z"/><path fill="#627CFF" d="M53.122 115.623c-2.604 0-3.913-2.084-4.964-3.758-.986-1.564-1.832-2.907-3.428-2.907-1.595 0-2.44 1.343-3.422 2.898-1.056 1.683-2.365 3.767-4.97 3.767-2.604 0-3.913-2.084-4.964-3.758-.985-1.564-1.832-2.907-3.427-2.907a.911.911 0 0 1-.91-.909c0-.5.408-.909.91-.909 2.604 0 3.913 2.082 4.964 3.758.985 1.562 1.832 2.907 3.428 2.907 1.595 0 2.447-1.347 3.427-2.907 1.051-1.674 2.36-3.758 4.964-3.758 2.605 0 3.914 2.082 4.965 3.758.985 1.562 1.832 2.907 3.427 2.907a.91.91 0 0 1 .91.909.91.91 0 0 1-.91.909Z"/><path fill="#627CFF" d="M53.122 115.214c-2.376 0-3.566-1.893-4.615-3.565-1.002-1.589-1.952-3.099-3.775-3.099s-2.772 1.51-3.774 3.099c-1.05 1.672-2.247 3.565-4.616 3.565-2.369 0-3.566-1.893-4.616-3.565-1.002-1.589-1.95-3.099-3.774-3.099a.497.497 0 1 1 0-.996c2.376 0 3.566 1.894 4.616 3.564 1.002 1.59 1.95 3.099 3.776 3.099 1.825 0 2.772-1.502 3.774-3.099 1.05-1.672 2.247-3.564 4.616-3.564 2.369 0 3.566 1.894 4.616 3.564 1.002 1.59 1.95 3.099 3.776 3.099a.498.498 0 1 1 0 .997h-.004Z"/><path fill="#fff" d="M97.61 129.417H55.622c-.942 0-1.705.763-1.705 1.705v28.006c0 .942.763 1.705 1.705 1.705H97.61c.942 0 1.705-.763 1.705-1.705v-28.006c0-.942-.763-1.705-1.705-1.705Z"/><path fill="#627CFF" d="M62.608 154.97h-2.242a.852.852 0 0 1-.853-.852v-12.676c0-.47.382-.852.853-.852h2.242c.47 0 .853.382.853.852v12.676a.852.852 0 0 1-.853.852ZM74.778 154.97h-2.242a.852.852 0 0 1-.852-.852v-18.526c0-.471.381-.853.852-.853h2.242c.471 0 .853.382.853.853v18.526a.852.852 0 0 1-.853.852Z"/><path fill="#FCCE9F" d="M80.693 154.97H78.45a.852.852 0 0 1-.853-.852v-15.613c0-.47.382-.852.853-.852h2.242c.47 0 .852.382.852.852v15.613a.852.852 0 0 1-.852.852ZM92.863 154.97H90.62a.852.852 0 0 1-.853-.852v-15.613c0-.47.382-.852.853-.852h2.242c.47 0 .852.382.852.852v15.613a.852.852 0 0 1-.852.852Z"/><path fill="#627CFF" d="M86.64 154.97h-2.243a.852.852 0 0 1-.853-.852v-10.849c0-.471.382-.853.853-.853h2.242c.471 0 .853.382.853.853v10.849a.852.852 0 0 1-.853.852Z"/><path fill="#271B46" d="M68.735 154.97h-2.242a.852.852 0 0 1-.852-.852v-7.727c0-.47.381-.852.852-.852h2.242c.471 0 .853.382.853.852v7.727a.852.852 0 0 1-.853.852Z"/><path fill="#fff" d="M159.003 43.576h-29.779c-.668 0-1.209.54-1.209 1.21v19.862c0 .668.541 1.21 1.209 1.21h29.779a1.21 1.21 0 0 0 1.21-1.21V44.785a1.21 1.21 0 0 0-1.21-1.21Z"/><path fill="#627CFF" d="M148.706 47.782v4.177a2.748 2.748 0 0 0-2.744 2.754c0 .503.138.972.37 1.377l-3.617 2.09a6.938 6.938 0 0 1 2.533-9.467 6.6 6.6 0 0 1 3.464-.931h-.006Z"/><path fill="#FCCE9F" d="M154.696 58.176a6.915 6.915 0 0 1-9.452 2.536 6.601 6.601 0 0 1-2.534-2.536l3.618-2.091a2.744 2.744 0 0 0 2.379 1.377 2.763 2.763 0 0 0 2.385-1.377l3.612 2.09h-.008Z"/><path fill="#271B46" d="M155.626 54.712c0 1.275-.29 2.36-.93 3.468l-3.611-2.09a2.753 2.753 0 0 0-2.378-4.125v-4.177a6.924 6.924 0 0 1 6.92 6.929v-.006l-.001.001Z"/><path fill="#627CFF" d="M134.358 51.292a1.753 1.753 0 1 0-.002-3.505 1.753 1.753 0 0 0 .002 3.505Z"/><path fill="#FCCE9F" d="M134.358 61.645a1.753 1.753 0 1 0-.002-3.506 1.753 1.753 0 0 0 .002 3.506Z"/><path fill="#271B46" d="M134.358 56.469a1.754 1.754 0 0 0 0-3.507 1.753 1.753 0 0 0 0 3.507Z"/></g><defs><clipPath id="a"><path fill="#fff" d="M0 0h200v200H0z"/></clipPath></defs></svg>
